X:3
T:Nol - Nol
M:6/8
L:1/8
K:Eb
B,|:G2G F3|ABA G>AG|F3 G2B,|G2G F3|ABA G>AG|
F3 E3||E2E FEF|GAG F3|c2c BcB|AGA F2B,:|
